X:40
T:Hockley In The Hole. (p)1651.PLFD.040
M:6/4
L:1/4
Q:3/4=90
S:Playford, Dancing Master,1st Ed.,1651.
O:England
H:1651.
Z:Chris Partington.
K:C
dBGdBG|g2ec>de/f/|dBGdBG|1d2BG3:|2d2BG2|
|:G|GAGGB2|ABAce2|dBGGAB|1A2GG2:|2A2GG3:|
